icons/op-undo-24.svg

<svg width="24" height="24" viewBox="0 0 24 24" fill="none" xmlns="http://www.w3.org/2000/svg">
<path d="M6.75 10.0825C7.0625 9.30928 7.5625 8.62887 8.15625 8.01031C9.46875 6.71134 11.2188 6 13.0625 6C14.9062 6 16.6562 6.71134 17.9688 8.01031C19.2812 9.30928 20 11.0103 20 12.866C20 14.6907 19.2812 16.4227 17.9688 17.6907C17.75 17.9072 17.4688 18 17.2188 18C16.9375 18 16.6562 17.9072 16.4688 17.6907C16.0312 17.2887 16.0312 16.6082 16.4688 16.2062C17.375 15.3093 17.875 14.134 17.875 12.866C17.875 11.5979 17.375 10.3918 16.4688 9.49485C15.5625 8.59794 14.3438 8.10309 13.0625 8.10309C11.7812 8.10309 10.5938 8.59794 9.6875 9.49485C9 10.1753 8.5625 10.9794 8.375 11.9072L10.6562 14.4433H4V7.05155L6.75 10.0825Z" fill="black"/>
</svg>

<svg xmlns="http://www.w3.org/2000/svg" width="24" height="24" viewBox="0 0 24 24"><path d="M6.75 10.082c.312-.773.812-1.453 1.406-2.072A6.942 6.942 0 0 1 13.062 6c1.844 0 3.594.711 4.907 2.01A6.747 6.747 0 0 1 20 12.866a6.676 6.676 0 0 1-2.031 4.825c-.219.216-.5.309-.75.309-.281 0-.563-.093-.75-.309a1.003 1.003 0 0 1 0-1.485 4.655 4.655 0 0 0 1.406-3.34c0-1.268-.5-2.474-1.406-3.371a4.826 4.826 0 0 0-3.407-1.392 4.75 4.75 0 0 0-3.374 1.392 4.605 4.605 0 0 0-1.313 2.412l2.281 2.536H4V7.052l2.75 3.03Z"/></svg>
